X: 1740
T: Appleby Fair
R: jig
M: 6/8
K: Dmajor
|:DFA dcd|AFA BGE|DFA def|gfg e3|
DF/G/A d3|AF/G/A G2 E|afd efg|ABc d3:|
|:fef d2 f|B2 d A3|FGA Bcd|fed e2 a/g/|
fgf efe|dfd B2 d|FF/G/A Bed|cBc d3:|

